X:46
T:Persie House Reel
C:Robert Petrie
S:Petrie's Collection of Strathspey Reels and Country Dances &c., 1790
Z:Steve Wyrick , 3/20/04
N:Petrie's First Collection, page 20
L:1/8
M:C
R:Reel
K:Em
B|E/E/E BE GBEG|FDAD FADF|GEBE  GBAc|BGAF  GEE :|
f|Bgeg     bgeg|dafg afdf|Bgeg  bgeg|BaTgf geef |
  Bgeg     bgeg|dafg afdf|gef^d eBcA|GBAF  GEE |]
